src/lib/packages/icons/src/assets/line/chat-edit.svg

<svg width="24" height="24" viewBox="0 0 24 24" fill="none" xmlns="http://www.w3.org/2000/svg">
<path d="M12.001 2.25C6.626 2.25 2.25295 6.62302 2.25295 11.999C2.25295 13.399 2.56405 14.808 3.15505 16.082C3.27005 16.325 3.27893 16.633 3.18093 16.94L2.34011 19.441C2.13011 20.073 2.29311 20.76 2.76711 21.233C3.10311 21.569 3.54692 21.749 4.00392 21.749C4.18992 21.749 4.37705 21.719 4.56105 21.658L7.05007 20.822C7.36807 20.721 7.67707 20.729 7.92507 20.848C9.19207 21.437 10.601 21.748 12 21.748C17.376 21.748 21.749 17.375 21.749 11.999C21.749 6.62302 17.377 2.25 12.001 2.25ZM12.001 20.248C10.818 20.248 9.62796 19.985 8.56496 19.491C7.97596 19.21 7.27703 19.176 6.58303 19.397L4.08498 20.236C3.95998 20.278 3.8699 20.214 3.8279 20.172C3.7859 20.13 3.72193 20.041 3.76393 19.916L4.60793 17.405C4.82493 16.722 4.78996 16.023 4.51296 15.442C4.01596 14.372 3.75295 13.182 3.75295 11.998C3.75295 7.44999 7.453 3.74902 12.001 3.74902C16.55 3.74902 20.25 7.44899 20.25 11.998C20.25 16.547 16.55 20.248 12.001 20.248ZM15.2791 7.72998C14.9691 7.41998 14.5581 7.25 14.1211 7.25C14.1201 7.25 14.1189 7.25 14.1189 7.25C13.6809 7.25 13.268 7.42197 12.96 7.73297L7.46901 13.249C7.32801 13.389 7.25002 13.58 7.25002 13.778V16C7.25002 16.414 7.58602 16.75 8.00002 16.75H10.2229C10.4209 16.75 10.612 16.671 10.752 16.531L16.2681 11.04C16.5791 10.731 16.749 10.319 16.75 9.88098C16.75 9.44298 16.58 9.02997 16.27 8.71997L15.2791 7.72998ZM14.1211 8.75C14.1471 8.75 14.185 8.75702 14.219 8.79102L15.209 9.78101C15.243 9.81501 15.25 9.854 15.25 9.88C15.25 9.906 15.243 9.94403 15.209 9.97803L14.573 10.611L13.3889 9.427L14.022 8.79102C14.057 8.75702 14.0951 8.75 14.1211 8.75ZM9.9131 15.25H8.75002V14.087L12.3311 10.49L13.51 11.669L9.9131 15.25Z" fill="currentColor"/>
</svg>

<svg xmlns="http://www.w3.org/2000/svg" width="24" height="24" fill="none"><path fill="currentColor" d="M12.001 2.25c-5.375 0-9.748 4.373-9.748 9.749 0 1.4.311 2.809.902 4.083.115.243.124.551.026.858l-.84 2.501a1.743 1.743 0 0 0 .426 1.792 1.745 1.745 0 0 0 1.794.425l2.49-.836c.317-.101.626-.093.874.026a9.73 9.73 0 0 0 4.075.9c5.376 0 9.749-4.373 9.749-9.749S17.377 2.25 12.001 2.25Zm0 17.998a8.214 8.214 0 0 1-3.436-.757c-.589-.281-1.288-.315-1.982-.094l-2.498.839a.244.244 0 0 1-.257-.064.242.242 0 0 1-.064-.256l.844-2.511c.217-.683.182-1.382-.095-1.963a8.227 8.227 0 0 1-.76-3.444c0-4.548 3.7-8.249 8.248-8.249 4.549 0 8.249 3.7 8.249 8.249s-3.7 8.25-8.249 8.25ZM15.279 7.73c-.31-.31-.72-.48-1.158-.48h-.002c-.438 0-.851.172-1.159.483l-5.491 5.516a.745.745 0 0 0-.219.529V16c0 .414.336.75.75.75h2.223a.75.75 0 0 0 .529-.219l5.516-5.491c.311-.309.481-.721.482-1.159 0-.438-.17-.851-.48-1.161l-.99-.99Zm-1.158 1.02c.026 0 .064.007.098.041l.99.99a.138.138 0 0 1 0 .197l-.636.633-1.184-1.184.633-.636a.14.14 0 0 1 .1-.041Zm-4.208 6.5H8.75v-1.163l3.581-3.597 1.179 1.179-3.597 3.581Z"/></svg>
